X:1
T:Summer
T:Antonio Vivaldi
T:FILARMÓNICA JOVEN -TALENTO HUMANO
%%score ( 1 2 ) ( 3 4 ) 5
L:1/8
Q:1/4=40
M:3/4
K:F
V:1 treble transpose=-2 nm="B♭ Clarinet" snm="B♭ Cl."
V:2 treble transpose=-2 
V:3 treble nm="Violin" snm="Vln."
V:4 treble 
V:5 bass nm="Violoncello" snm="Vlc."
V:1
[K:G] E/E,/E,/E,/ E,/E,/E,/E,/ E,/E,/E,/E,/ | D/E,/E,/E,/ E,/E,/E,/E,/ E,/E,/E,/E,/ | %2
 C/E,/E,/E,/ E,/E,/E,/E,/ E,/E,/E,/E,/ | B,/E,/E,/E,/ E,/E,/E,/E,/ E, z | z6 | %5
 B/B,/B,/B,/ B,/B,/B,/B,/ B,/B,/B,/B,/ | A/B,/B,/B,/ B,/B,/B,/B,/ B,/B,/B,/B,/ | %7
 G/B,/B,/B,/ B,/B,/B,/B,/ B,/B,/B,/B,/ | F/B,/B,/B,/ B,/B,/B,/B,/ B, z | %9
 z/ B/A/G/ F/E/^D/^C/ B,/A,/G,/F,/ | E,/E,/E,/E,/ E,/E,/E,/E,/ E,/E,/E,/E,/ | %11
 E,/e/d/=c/ B/A/G/F/ E/D/C/B,/ | A,/A,/A,/A,/ A,/A,/A,/A,/ A,/A,/A,/A,/ | %13
 A,/g/f/e/ d/c/B/A/ G/F/E/D/ | C/C/C/C/ C/C/C/C/ C/C/C/C/ | C/b/a/g/ f/e/^d/^c/ B/A/G/F/ | %16
 E/E/E/E/ E/E/E/E/ E/E/E/E/ | E/b/a/g/ f/e/^d/^c/ B/A/G/F/ | E/E/E/E/ E/E/E/E/ E/E/E/E/ | %19
 B/E/E/E/ B/E/E/E/ B/E/E/E/ | B,/F/G/A/ B/^c/^d/e/ f z | z/ F/G/A/ B/^c/^d/e/ f z | %22
 z/ G/A/B/ =c/^d/e/f/ g z | z/ B/^c/^d/ e/f/g/a/ b z | z/ B/^c/^d/ e/f/g/a/ b z | %25
 z/ F/G/A/ B/^c/^d/e/ f z | z/ G/A/B/ =c/^d/e/f/ g z | z/ B/^c/^d/ e/f/g/a/ b z | %28
 g/e/B/G/ g/e/B/G/ g/e/B/G/ | B/G/E/B,/ B/G/E/B,/ B/G/E/B,/ | E/B,/G,/E,/ E/B,/G,/E,/ E/B,/G,/E,/ | %31
 [E,E]/[E^G]/[E,E]/[E^G]/ [E,E]/[EG]/[E,E]/[E^G]/ [E,E]/[EG]/[E,E]/[E^G]/ | %32
 [E,E]/[E,E]/[E,E]/[E,E]/ [E,E]/[E,E]/[E,E]/[E,E]/ [E,E]/[E,E]/[E,E]/[E,E]/ | %33
 ^C/C/^C/C/ C/C/^C/C/ C/C/^C/C/ | F/B/F/B/ F/B/F/B/ F/B/F/B/ | B,/B/B,/B/ B,/B/B,/B/ B,/B/B,/B/ | %36
 F/^A/F/^A/ F/^A/F/^A/ F/^A/F/^A/ | B/B,/^C/D/ E/F/^G/^A/ B/F/^G/^A/ | %38
 B/^c/d/e/ f/B/^c/d/ e/f/^g/^a/ | b2 z/ f/f/^a/ ^a/^c'/^c'/f'/ | f'/f/B,/f/ e'/f/B,/f/ d'/f/B,/f/ | %41
 ^c'/f/B,/f/ d'/f/B,/f/ e'/f/B,/f/ | f'/f/B,/f/ e'/f/B,/f/ d'/f/B,/f/ | %43
 [B,f_d']2 z/ B/B/d/ d/f/f/b/ | b/B/B,/B/ a/B/B,/B/ g/B/B,/B/ | f/B/B,/B/ g/B/B,/B/ ^a/B/B,/B/ | %46
 b/B/B,/B/ a/B/B,/B/ g/B/B,/B/ | [B,Bf]2 z/ f'/f'/e'/ e'/d'/d'/^c'/ | %48
 ^c'/b/b/a/ a/g/g/f/ f/e/e/d/ | d/^c/^c/B/ B/A/A/G/ G/F/F/^E/ | F^E F^E FD | E^C DB, ^C^A, | %52
 B,^A, B,^A, B,^A, | B,!courtesy!^A, B,!courtesy!^A, B,!courtesy!^A, | B,B, B,G df | gB, B,G eg | %56
 g^C C^c eg | fD DA df | fB, B,B df | e=C CG ce | eA, A,A ce | eB, B,^G Be | dB, B,^G Bd | %63
 c/C/D/E/ =F/^G/A/B/ c z | z/ C/D/E/ =F/^G/A/B/ c z | z/ C/D/E/ =F/^G/A/B/ c z | %66
 C/A/G/A/ C/A/G/A/ C/A/G/A/ | D/A/G/A/ D/A/G/A/ D/A/G/A/ | E/A/^G/A/ E/A/^G/A/ E/^G/F/^G/ | %69
 A/A,/A,/A,/ A,/A,/A,/A,/ A,/A,/A,/A,/ | G/A,/A,/A,/ A,/A,/A,/A,/ A,/A,/A,/A,/ | %71
 =F/A,/A,/A,/ A,/A,/A,/A,/ A,/A,/A,/A,/ | E/A,/A,/A,/ A,/A,/A,/A,/ A, z | %73
 (c/A/)(c/A/) (c/A/)(c/A/) (c/A/)(c/A/) | (B/^G/)(B/G/) (B/G/)(B/G/) (B/G/)(B/G/) | %75
 (c/A/)(c/A/) (c/A/)(c/A/) (c/A/)(c/A/) | (B/G/)(B/G/) (B/G/)(B/G/) (B/G/)(B/G/) | %77
 (c/G/)(c/G/) (c/G/)(c/G/) (c/G/)(c/G/) | c/e/e/=f/ f/g/g/a/ a/b/b/c'/ | %79
 c'/g/e/c/ c'/g/e/c/ c'/g/e/c/ | d/=f/f/g/ g/a/a/b/ b/c'/c'/d'/ | d'/a/^f/d/ d'/a/f/d/ d'/a/f/d/ | %82
 e/g/g/a/ a/b/b/c'/ c'/d'/d'/e'/ | e'/b/^g/e/ e'/b/^g/e/ e'/b/^g/e/ | %84
 c'/A,/A,/A,/ A,/A,/A,/A,/ A,/A,/A,/A,/ | =F/A,/A,/A,/ F/A,/A,/A,/ F/A,/A,/A,/ | %86
 ^G,/G,/G,/G,/ G,/G,/G,/G,/ G,/G,/G,/G,/ | E/=G,/G,/G,/ E/G,/G,/G,/ E/G,/G,/G,/ | %88
 F,/F,/F,/F,/ F,/F,/F,/F,/ F,/F,/F,/F,/ | D/=F,/F,/F,/ D/F,/F,/F,/ D/F,/F,/F,/ | %90
 E,/E/E/E/ E/E/E/E/ E/E/E/E/ | c/E/E/E/ c/E/E/E/ c/E/E/E/ | ^D/D/D/D/ D/D/D/D/ D/D/D/D/ | %93
 B/=D/D/D/ B/D/D/D/ B/D/D/D/ | ^C/C/C/C/ C/C/C/C/ C/C/C/C/ | A/=C/C/C/ A/C/C/C/ A/C/C/C/ | %96
 B,/B,/B,/B,/ ^D/B,/B,/B,/ F/B,/B,/B,/ | G/B,/B,/B,/ A/B,/B,/B,/ B/B,/B,/B,/ | %98
 c/B,/B,/B,/ ^d/B,/B,/B,/ e/B,/B,/B,/ | f/B,/B,/B,/ g/B,/B,/B,/ a/B,/B,/B,/ | %100
 b/B/A/G/ F/E/^D/^C/ B,/A,/G,/F,/ | E,/B/A/G/ F/E/^D/^C/ B,/A,/G,/F,/ | %102
 E,/e/d/=c/ B/A/G/F/ E/D/C/B,/ | A,/A,/A,/A,/ A,/A,/A,/A,/ A,/A,/A,/A,/ | %104
 A,/g/f/e/ d/c/B/A/ G/F/E/D/ | C/C/C/C/ C/C/C/C/ C/C/C/C/ | C/b/a/g/ f/e/^d/^c/ B/A/G/f/ | %107
 E/E/E/E/ E/E/E/E/ E/E/E/E/ | B/E/E,/E/ c/E/E,/E/ ^d/E/E,/E/ | e/E/E,/E/ d/E/E,/E/ c/E/E,/E/ | %110
 B/E/E,/E/ c/E/E,/E/ ^d/E/E,/E/ | e/E/E,/E/ d/E/E,/E/ c/E/E,/c/ | %112
 [E,EB]/E/F/G/ A/B/^c/^d/ e/f/g/f/ | e/d/c/B/ A/G/F/E/ ^D/^C/B,/A,/ | %114
 G,/E,/G,/E,/ G,/E,/G,/E,/ G,/E,/G,/E,/ | C/B,/^D/^C/ E/^D/F/E/ G/F/A/G/ | %116
 B/A/c/B/ ^d/^c/e/^d/ f/e/g/f/ | C/B,/^D/^C/ E/^D/F/E/ G/F/A/G/ | B/A/c/B/ ^d/^c/e/^d/ f/e/g/f/ | %119
 B,/B,/B,/B,/ B,/B,/B,/B,/ B,/B,/B,/B,/ | E/B,/G,/E,/ E/B,/G,/E,/ E/B,/G,/E,/ | %121
 E/E/E/E/ E/E/E/E/ E/E/E/E/ | ^D/D/D/D/ D/D/D/D/ D/D/D/D/ | E/B,/G,/E,/ E/B,/G,/E,/ E/B,/G,/E,/ | %124
 E/E/E/E/ E/E/E/E/ E/E/E/E/ | ^D/D/D/D/ D/D/D/D/ D/D/D/D/ | B,/B,/B,/B,/ E/E/E/E/ G/G/G/G/ | %127
 G/G/G/G/ e/e/e/e/ B,/B,/B,/B,/ | G,/G,/G,/G,/ E,/E,/E,/E,/ G/G/G/G/ | E,6 | z6 |] %131
V:2
[K:G] x6 | x6 | x6 | x6 | x6 | x6 | x6 | x6 | x6 | x6 | x6 | x6 | x6 | x6 | x6 | x6 | x6 | x6 | %18
 x6 | x6 | x6 | x6 | x6 | x6 | x6 | x6 | x6 | x6 | x6 | x6 | x6 | x6 | x6 | x6 | x6 | x6 | x6 | %37
 x6 | x6 | x6 | x6 | x6 | x6 | x6 | x6 | x6 | x6 | x6 | x6 | x6 | x6 | x6 | x6 | x6 | x6 | x6 | %56
 x6 | x6 | x6 | x6 | x6 | x6 | x6 | x6 | x6 | x6 | x6 | x6 | x6 | x6 | x6 | x6 | x6 | x6 | x6 | %75
 x6 | x6 | x6 | x6 | x6 | x6 | x6 | x6 | x6 | x6 | x6 | x6 | x6 | x6 | x6 | x6 | x6 | x6 | x6 | %94
 x6 | x6 | x6 | x6 | x6 | x6 | x6 | x6 | x6 | x6 | x6 | x6 | x6 | x6 | x6 | x6 | x6 | x6 | x6 | %113
 x6 | x6 | x6 | x6 | x6 | x6 | x6 | x6 | x6 | x6 | x6 | F,/F,/F,/F,/ F,/F,/F,/F,/ F,/F,/F,/F,/ | %125
 F,/F,/F,/F,/ F,/F,/F,/F,/ F,/F,/F,/F,/ | x6 | x6 | x4 B,/B,/B,/B,/ | x6 | x6 |] %131
V:3
 D/ D,/ D,/ D,/ D,/ D,/ D,/ D,/ D,/ D,/ D,/ D,/ | C/ D,/ D,/ D,/ D,/ D,/ D,/ D,/ D,/ D,/ D,/ D,/ | %2
 B,/ D,/ D,/ D,/ D,/ D,/ D,/ D,/ D,/ D,/ D,/ D,/ | A,/ D,/ D,/ D,/ D,/ D,/ D,/ D,/ D, z | z6 | %5
 A/ A,/ A,/ A,/ A,/ A,/ A,/ A,/ A,/ A,/ A,/ A,/ | G/ A,/ A,/ A,/ A,/ A,/ A,/ A,/ A,/ A,/ A,/ A,/ | %7
 F/ A,/ A,/ A,/ A,/ A,/ A,/ A,/ A,/ A,/ A,/ A,/ | E/ A,/ A,/ A,/ A,/ A,/ A,/ A,/ A, z | z6 | %10
 z/ A/ G/ F/ E/ D/ ^C/ =B,/ A,/ G,/ F,/ E,/ | D,/ D,/ D,/ D,/ D,/ D,/ D,/ D,/ D,/ D,/ D,/ D,/ | %12
 D,/ d/ c/ _B/ A/ G/ F/ E/ D/ C/ B,/ A,/ | G,/ G,/ G,/ G,/ G,/ G,/ G,/ G,/ G,/ G,/ G,/ G,/ | %14
 G,/ f/ e/ d/ c/ B/ A/ G/ F/ E/ D/ C/ | B,/ B,/ B,/ B,/ B,/ B,/ B,/ B,/ B,/ B,/ B,/ B,/ | %16
 B,/ a/ g/ f/ e/ d/ !courtesy!^c/ =B/ A/ G/ F/ E/ | D/ D/ D/ D/ D/ D/ D/ D/ D/ D/ D/ D/ | %18
 D/ a/ g/ f/ e/ d/ !courtesy!^c/ =B/ A/ G/ F/ E/ | D/ D/ D/ D/ A/ D/ D/ D/ A/ D/ D/ D/ | %20
 ^C2 z2 z/ A/ E/ ^C/ | A,2 z2 z/ A/ E/ ^C/ | D2 z2 z/ A/ F/ D/ | ^C2 z2 z/ A/ E/ ^C/ | %24
 D2 z2 z/ A/ E/ ^C/ | A,2 z2 z/ A/ E/ ^C/ | D2 z2 z/ A/ F/ D/ | ^C2 z2 z/ A/ E/ ^C/ | %28
 F/ A/ d/ f/ F/ A/ d/ f/ F/ A/ d/ f/ | A,/ D/ F/ A/ A,/ D/ F/ A/ A,/ D/ F/ A/ | %30
 D,/ F,/ A,/ D/ D,/ F,/ A,/ D/ D,/ F,/ A,/ D/ | %31
 [^F,A,]/ [A,^F]/ [^F,A,]/ [A,F]/ [F,A,]/ [A,F]/ [^F,A,]/ [A,F]/ [F,A,]/ [A,F]/ [^F,A,]/ [A,F]/ | %32
 [G,B,]/ [B,G]/ [G,B,]/ [B,G]/ [G,B,]/ [B,G]/ [G,B,]/ [B,G]/ [G,B,]/ [B,G]/ [G,B,]/ [B,G]/ | %33
 D/ ^G/ D/ ^G/ D/ ^G/ D/ ^G/ D/ ^G/ D/ ^G/ | C/ E/ C/ E/ C/ E/ C/ E/ C/ A,/ C/ A,/ | %35
 [!courtesy!=B,E]/ [B,E]/ [!courtesy!=B,E]/ [B,E]/ [B,E]/ [B,E]/ [!courtesy!=B,E]/ [B,E]/ [B,E]/ [B,E]/ [!courtesy!=B,E]/ [B,E]/ | %36
 !courtesy!=B,/ E/ !courtesy!=B,/ E/ !courtesy!=B,/ E/ !courtesy!=B,/ E/ !courtesy!=B,/ E/ !courtesy!=B,/ E/ | %37
 C2 z2 z/ E/ ^F/ ^G/ | A/ =B/ c/ d/ e/ A/ =B/ c/ d/ e/ ^f/ ^g/ | c'2 z4 | A,2 A,2 A,2 | %41
 A,2 A,2 A,2 | A,2 A,2 A,2 | A,2 z4 | A,2 A,2 A,2 | A,2 A,2 A,2 | A,2 A,2 A,2 | A,2 z4 | z6 | z6 | %50
 A,6- | A,6- | A,6- | A,6 |!f! [ce] E, E, E A c | d F, F, F A d | d G, G, E =B d | c G, G, E G c | %58
 c F, F, F A c | _B F, F, D F B | B _E, E, _E G B | A ^F, F, D ^F A | A ^F, F, D ^F A | %63
 D,2 z G D/ B,/ A,/ G,/ | D,2 z G D/ B,/ A,/ G,/ | D,2 z G D/ B,/ A,/ G,/ | D, D, D, D, D, D, | %67
 _E, E, E, E, _E E | A, A, A, A, A, A, | B,/ G,/ G,/ G,/ G,/ G,/ G,/ G,/ G,/ G,/ G,/ G,/ | %70
 F/ G,/ G,/ G,/ G,/ G,/ G,/ G,/ G,/ G,/ G,/ G,/ | _E/ G,/ G,/ G,/ G,/ G,/ G,/ G,/ G,/ G,/ G,/ G,/ | %72
 D/ G,/ G,/ G,/ G,/ G,/ G,/ G,/ G, z | d6 | d6 | d6 | c6 | d6 | z6 | z6 | z6 | z6 | z6 | z6 | %84
 E,/ E,/ E,/ E,/ G,/ G,/ G,/ G,/ G,/ G,/ G,/ G,/ | _E/ G,/ G,/ G,/ E/ G,/ G,/ G,/ E/ G,/ G,/ G,/ | %86
 ^F,/ F,/ F,/ F,/ F,/ F,/ F,/ F,/ F,/ F,/ F,/ F,/ | D/ =F,/ F,/ F,/ D/ F,/ F,/ F,/ D/ F,/ F,/ F,/ | %88
 E,/ E,/ E,/ E,/ E,/ E,/ E,/ E,/ E,/ E,/ E,/ E,/ | C/ _E,/ E,/ E,/ C/ E,/ E,/ E,/ C/ E,/ E,/ E,/ | %90
 D,/ D/ D/ D/ D/ D/ D/ D/ D/ D/ D/ D/ | B/ D/ D/ D/ B/ D/ D/ D/ B/ D/ D/ D/ | %92
 ^C/ C/ C/ C/ C/ C/ C/ C/ C/ C/ C/ C/ | A/ =C/ C/ C/ A/ C/ C/ C/ A/ C/ C/ C/ | %94
 =B,/ B,/ B,/ B,/ B,/ B,/ B,/ B,/ B,/ B,/ B,/ B,/ | G/ _B,/ B,/ B,/ G/ B,/ B,/ B,/ G/ B,/ B,/ B,/ | %96
 A,2 z4 | z6 | z6 | z6 | z/ A/ G/ F/ E/ D/ ^C/ =B,/ A,/ G,/ F,/ E,/ | %101
 D,/ D,/ D,/ D,/ D,/ D,/ D,/ D,/ D,/ D,/ D,/ D,/ | %102
 D,/ D,/ D,/ D,/ D,/ D,/ D,/ D,/ D,/ D,/ D,/ D,/ | D,/ d/ c/ _B/ A/ G/ F/ E/ D/ C/ B,/ A,/ | %104
 G,/ G,/ G,/ G,/ G,/ G,/ G,/ G,/ G,/ G,/ G,/ G,/ | G,/ f/ e/ d/ c/ B/ A/ G/ F/ E/ D/ C/ | %106
 B,/ B,/ B,/ B,/ B,/ B,/ B,/ B,/ B,/ B,/ B,/ B,/ | B,/ a/ g/ f/ e/ d/ ^c/ =B/ A/ G/ F/ E/ | %108
 D2 D,2 D,2 | D,2 D,2 D,2 | D,2 D,2 D,2 | D,2 D,2 D,2 | %112
 D,/ D/ E/ F/ G/ A/ !courtesy!=B/ ^c/ d/ e/ f/ e/ | d/ c/ B/ A/ G/ F/ E/ D/ ^C/ =B,/ A,/ G,/ | %114
 F,/ D,/ F,/ D,/ F,/ D,/ F,/ D,/ F,/ D,/ F,/ D,/ | A,2 z4 | z6 | z6 | z6 | %119
 A,2 z/ A/ G/ F/ E/ D/ ^C/ =B,/ | A,/ A,/ A,/ A,/ A,/ A,/ A,/ A,/ A,/ A,/ A,/ A,/ | %121
 E,/ E,/ E,/ E,/ E,/ E,/ E,/ E,/ E,/ E,/ E,/ E,/ | %122
 E,/ E,/ E,/ E,/ E,/ E,/ E,/ E,/ E,/ E,/ E,/ E,/ | %123
 F,/ F,/ F,/ F,/ A,/ A,/ A,/ A,/ A,/ A,/ A,/ A,/ | %124
 B,/ B,/ B,/ B,/ B,/ B,/ B,/ B,/ B,/ B,/ B,/ B,/ | %125
 A,/ A,/ A,/ A,/ A,/ A,/ A,/ A,/ A,/ A,/ A,/ A,/ | D/ D/ D/ D/ F/ F/ F/ F/ A/ A/ A/ A/ | %127
 d/ d/ d/ d/ f/ f/ f/ f/ x/ f/ f/ f/ | d/ d/ d/ d/ A/ A/ A/ A/ D/ D/ D/ D/ | D,6 | z6 |] %131
V:4
 x6 | x6 | x6 | x6 | x6 | x6 | x6 | x6 | x6 | x6 | x6 | x6 | x6 | x6 | x6 | x6 | x6 | x6 | x6 | %19
 x6 | x6 | x6 | x6 | x6 | x6 | x6 | x6 | x6 | x6 | x6 | x6 | x6 | x6 | %33
 ^G,/ D/ ^G,/ D/ ^G,/ D/ ^G,/ D/ ^G,/ D/ ^G,/ D/ | A,/ C/ A,/ C/ A,/ C/ A,/ C/ A,/ C/ A,/ C/ | x6 | %36
 ^G,/ =B,/ ^G,/ =B,/ ^G,/ =B,/ ^G,/ =B,/ ^G,/ =B,/ ^G,/ =B,/ | x6 | x6 | x6 | x6 | x6 | x6 | x6 | %44
 x6 | x6 | x6 | x6 | x6 | x6 | x6 | x6 | x6 | x6 | x6 | x6 | x6 | x6 | x6 | x6 | x6 | x6 | x6 | %63
 x6 | x6 | x6 | x6 | x6 | x6 | x6 | x6 | x6 | x6 | x6 | x6 | x6 | x6 | x6 | x6 | x6 | x6 | x6 | %82
 x6 | x6 | x6 | x6 | x6 | x6 | x6 | x6 | x6 | x6 | x6 | x6 | x6 | x6 | x6 | x6 | x6 | x6 | x6 | %101
 x6 | x6 | x6 | x6 | x6 | x6 | x6 | x6 | x6 | x6 | x6 | x6 | x6 | x6 | x6 | x6 | x6 | x6 | x6 | %120
 x6 | x6 | x6 | x6 | x6 | x6 | F,/ F,/ F,/ F,/ A,/ A,/ A,/ A,/ D/ D/ D/ D/ | %127
 A/ A/ A/ A/ A/ A/ A/ A/ d/ d/ d/ d/ | A/ A/ A/ A/ F/ F/ F/ F/ z2 | x6 | x6 |] %131
V:5
 D,/ D,,/ D,,/ D,,/ D,,/ D,,/ D,,/ D,,/ D,,/ D,,/ D,,/ D,,/ | %1
 C,/ D,,/ D,,/ D,,/ D,,/ D,,/ D,,/ D,,/ D,,/ D,,/ D,,/ D,,/ | %2
 B,,/ D,,/ D,,/ D,,/ D,,/ D,,/ D,,/ D,,/ D,,/ D,,/ D,,/ D,,/ | %3
 A,,/ D,,/ D,,/ D,,/ D,,/ D,,/ D,,/ D,,/ D,, z | z6 | %5
 A,/ A,,/ A,,/ A,,/ A,,/ A,,/ A,,/ A,,/ A,,/ A,,/ A,,/ A,,/ | %6
 G,/ A,,/ A,,/ A,,/ A,,/ A,,/ A,,/ A,,/ A,,/ A,,/ A,,/ A,,/ | %7
 F,/ A,,/ A,,/ A,,/ A,,/ A,,/ A,,/ A,,/ A,,/ A,,/ A,,/ A,,/ | %8
 E,/ A,,/ A,,/ A,,/ A,,/ A,,/ A,,/ A,,/ A,, z | z6 | D,, D,, D,, D,, D,, D,, | %11
 D,, D,, D,, D,, D,, D,, | G,, G,, G,, G,, G,, G,, | G,, G,, G,, G,, G,, G,, | %14
 B,, B,, B,, B,, B,, B,, | B,, B,, B,, B,, B,, B,, | D, D, D, D, D, D, | D, D, D, D, D, D, | %18
 D, D, D, D, D, D, | D,/ D,/ D,/ D,/ D,/ D,/ D,/ D,/ D,/ D,/ D,/ D,/ | %20
 A,,/ A,/ A,,/ A,/ A,,/ A,/ A,,/ A,/ A,,/ A,/ A,,/ A,/ | %21
 A,,/ G,/ A,,/ G,/ A,,/ G,/ A,,/ G,/ A,,/ G,/ A,,/ G,/ | %22
 A,,/ F,/ A,,/ F,/ A,,/ F,/ A,,/ F,/ A,,/ F,/ A,,/ F,/ | %23
 A,,/ E,/ A,,/ E,/ A,,/ E,/ A,,/ E,/ A,,/ E,/ A,,/ E,/ | %24
 A,,/ A,/ A,,/ A,/ A,,/ A,/ A,,/ A,/ A,,/ A,/ A,,/ A,/ | %25
 A,,/ G,/ A,,/ G,/ A,,/ G,/ A,,/ G,/ A,,/ G,/ A,,/ G,/ | %26
 A,,/ F,/ A,,/ F,/ A,,/ F,/ A,,/ F,/ A,,/ F,/ A,,/ F,/ | %27
 A,,/ E,/ A,,/ E,/ A,,/ E,/ A,,/ E,/ A,,/ E,/ A,,/ E,/ | %28
 [D,,A,,] [D,,A,,] [D,,A,,] [D,,A,,] [D,,A,,] [D,,A,,] | %29
 [D,,A,,] [D,,A,,] [D,,A,,] [D,,A,,] [D,,A,,] [D,,A,,] | %30
 [D,,A,,] [D,,A,,] [D,,A,,] [D,,A,,] [D,,A,,] [D,,A,,] | %31
 D,,/ D,/ D,,/ D,/ D,,/ D,/ D,,/ D,/ D,,/ D,/ D,,/ D,/ | %32
 G,,/ G,/ G,,/ G,/ G,,/ G,/ G,,/ G,/ G,,/ G,/ G,,/ G,/ | %33
 E,,/ E,/ E,,/ E,/ E,,/ E,/ E,,/ E,/ E,,/ E,/ E,,/ E,/ | %34
 A,,/ A,/ A,,/ A,/ A,,/ A,/ A,,/ A,/ A,,/ A,/ A,,/ A,/ | %35
 E,,/ E,/ E,,/ E,/ E,,/ E,/ E,,/ E,/ E,,/ E,/ E,,/ E,/ | %36
 E,,/ E,/ E,,/ E,/ E,,/ E,/ E,,/ E,/ E,,/ E,/ E,,/ E,/ | A,,2 z4 | z6 | A,,2 z4 | z6 | z6 | z6 | %43
 z6 | z6 | z6 | z6 | z6 | z6 | z6 | z6 | z6 | F,, C,, F,, C,, F,, C,, | F,, C,, F,, C,, F,, C,, | %54
 F,,/ A,/ G,/ F,/ E,/ D,/ C,/ =B,,/ A,, z | D,,/ D,/ C,/ B,,/ A,,/ G,,/ F,,/ E,,/ D,,/ z/ z | %56
 G,,/ G,/ F,/ E,/ D,/ C,/ =B,,/ A,,/ G,, z | C,,/ C,/ =B,,/ A,,/ G,,/ F,,/ E,,/ D,,/ C,, z | %58
 F,,/ F,/ E,/ D,/ C,/ B,,/ A,,/ G,,/ F,, z | B,,,/ B,,/ A,,/ G,,/ F,,/ E,,/ D,,/ C,,/ B,,, z | %60
 _E,,/ _E,/ D,/ C,/ B,,/ A,,/ G,,/ F,,/ E,, z | ^F,,/ ^F,/ E,/ D,/ C,/ B,,/ A,,/ G,,/ ^F,, z | %62
 D,,/ D,/ C,/ B,,/ A,,/ G,,/ ^F,,/ E,,/ D,, z | %63
 G,,/ G,/ !courtesy!^F,/ _E,/ D,/ C,/ B,,/ A,,/ G,, z | %64
 z/ G,/ !courtesy!^F,/ _E,/ D,/ C,/ B,,/ A,,/ G,, z | %65
 z/ G,/ !courtesy!^F,/ _E,/ D,/ C,/ B,,/ A,,/ G,, z | B,, B,, B,, B,, B,, B,, | C, C, C, C, C, C, | %68
 D, D, D, D, D,, D,, | G,,/ G,,/ G,,/ G,,/ G,,/ G,,/ G,,/ G,,/ G,,/ G,,/ G,,/ G,,/ | %70
 F,/ G,,/ G,,/ G,,/ G,,/ G,,/ G,,/ G,,/ G,,/ G,,/ G,,/ G,,/ | %71
 _E,/ G,,/ G,,/ G,,/ G,,/ G,,/ G,,/ G,,/ G,,/ G,,/ G,,/ G,,/ | %72
 D,/ G,,/ G,,/ G,,/ G,,/ G,,/ G,,/ G,,/ G,, z | G,, G,/ ^F,/ G, G,, G,, G, | D,,2 z4 | z6 | z6 | %77
 B,,, B,,/ A,,/ B,, B,,, B,,, B,, | D,,2 z4 | D,, D,/ C,/ D, D,, D,, D, | _E,,2 z4 | %81
 E,, E,/ D,/ E, E,, E,, E, | F,,2 z2 z2 | ^F,, F,/ =E,/ ^F, F,, F,, F, | %84
 G,,/ G,,/ G,,/ G,,/ G,,/ G,,/ G,,/ G,,/ G,,/ G,,/ G,,/ G,,/ | %85
 _E,/ G,,/ G,,/ G,,/ E,/ G,,/ G,,/ G,,/ E,/ G,,/ G,,/ G,,/ | %86
 ^F,,/ F,,/ F,,/ F,,/ F,,/ F,,/ F,,/ F,,/ F,,/ F,,/ F,,/ F,,/ | %87
 D,/ =F,,/ F,,/ F,,/ D,/ F,,/ F,,/ F,,/ D,/ F,,/ F,,/ F,,/ | %88
 E,,/ E,,/ E,,/ E,,/ E,,/ E,,/ E,,/ E,,/ E,,/ E,,/ E,,/ E,,/ | %89
 C,/ _E,,/ E,,/ E,,/ C,/ _E,,/ E,,/ E,,/ C,/ E,,/ E,,/ E,,/ | %90
 D,,/ D,/ D,/ D,/ D,/ D,/ D,/ D,/ D,/ D,/ D,/ D,/ | %91
 B,/ D,/ D,/ D,/ B,/ D,/ D,/ D,/ B,/ D,/ D,/ D,/ | %92
 ^C,/ C,/ C,/ C,/ C,/ C,/ C,/ C,/ C,/ C,/ C,/ C,/ | %93
 A,/ C,/ C,/ C,/ A,/ C,/ C,/ C,/ A,/ C,/ C,/ C,/ | %94
 =B,,/ B,,/ B,,/ B,,/ B,,/ B,,/ B,,/ B,,/ B,,/ B,,/ B,,/ B,,/ | %95
 G,/ _B,,/ B,,/ B,,/ G,/ B,,/ B,,/ B,,/ G,/ B,,/ B,,/ B,,/ | C,6- | C,6- | C,6- | C,6- | C,2 z4 | %101
 D,, D,, D,, D,, D,, D,, | G,, G,, G,, G,, G,, G,, | B,, B,, B,, B,, B,, B,, | %104
 B,, B,, B,, B,, B,, B,, | B,, B,, B,, B,, B,, B,, | B,, B,, B,, B,, B,, B,, | D, D, D, D, D, D, | %108
 D,2 D,,2 D,,2 | D,,2 D,,2 D,,2 | D,,2 D,,2 D,,2 | D,,2 D,,2 D,,2 | D,,2 z4 | z6 | %114
 F,,/ C,,/ F,,/ C,,/ F,,/ C,,/ F,,/ C,,/ F,,/ C,,/ F,,/ C,,/ | A,,2 z4 | z6 | z6 | z6 | %119
 F,,/ A,/ G,/ F,/ E,/ F,/ E,/ D,/ ^C,/ =B,,/ A,,/ G,,/ | %120
 F,,/ F,,/ F,,/ F,,/ F,,/ F,,/ F,,/ F,,/ F,,/ F,,/ F,,/ F,,/ | %121
 G,,/ G,,/ G,,/ G,,/ G,,/ G,,/ G,,/ G,,/ G,,/ G,,/ G,,/ G,,/ | %122
 A,,/ A,,/ A,,/ A,,/ A,,/ A,,/ A,,/ A,,/ A,,/ A,,/ A,,/ A,,/ | %123
 D,,/ D,,/ D,,/ D,,/ F,,/ F,,/ F,,/ F,,/ F,,/ F,,/ F,,/ F,,/ | %124
 G,,/ G,,/ G,,/ G,,/ G,,/ G,,/ G,,/ G,,/ G,,/ G,,/ G,,/ G,,/ | %125
 A,,/ A,,/ A,,/ A,,/ A,,/ A,,/ A,,/ A,,/ A,,/ A,,/ A,,/ A,,/ | %126
 D,,/ D,/ D,,/ D,/ D,,/ D,/ D,,/ D,/ D,,/ D,/ D,,/ D,/ | %127
 D,,/ D,/ D,,/ D,/ D,,/ D,/ D,,/ D,/ D,,/ D,/ D,,/ D,/ | %128
 D,,/ D,/ D,,/ D,/ D,,/ D,/ D,,/ D,/ D,,/ D,/ D,,/ D,/ | D,,6 | z6 |] %131

